icons/show-derived-value-32.svg

<svg id="icons" xmlns="http://www.w3.org/2000/svg" viewBox="0 0 32 32"><defs><style>.cls-1{fill:none;}</style></defs><path d="M4.60059,4H0V3H4.60059A7.45077,7.45077,0,0,1,9.90381,5.19678L15,10.293V5h1v7H9V11h5.293L9.19678,5.90381A6.45762,6.45762,0,0,0,4.60059,4ZM11.4845,28H3V21H9.43823c.25739-.29364.57147-.63147.93811-1H2.57129A.57144.57144,0,0,0,2,20.57129v7.85742A.57148.57148,0,0,0,2.57129,29H12.73065C12.28473,28.66852,11.86658,28.33228,11.4845,28Zm9.01418-1.05a3.4414,3.4414,0,0,0,3.45071-3.39438l-.00021-.038.00062-.03795a3.4392,3.4392,0,0,0-3.41388-3.42962c-.012-.00012-.05985-.00012-.07184,0a3.4392,3.4392,0,0,0-3.41388,3.42962l.00062.03795-.00021.038A3.44081,3.44081,0,0,0,20.49868,26.95Zm-.032-9.00618c-4.55149.10222-8.3943,4.33275-9.37325,5.54467l.00484.00573L11.09351,23.5c.99166,1.20154,4.87772,5.49074,9.43,5.545h.01431c4.55232-.0543,8.377-4.3435,9.36863-5.545l-.00478-.00578.00484-.00573c-.97895-1.21192-4.76035-5.44245-9.31184-5.54467q-.032-.00022-.064-.0002Q20.49872,17.94359,20.4667,17.94382Zm.05293,12.00181c-5.66338-.06272-10.10857-5.89479-10.296-6.1468L10,23.5l.22047-.30117c.18477-.254,4.57043-6.03318,10.23284-6.1555.02582-.00021.129-.00021.15479,0,5.66241.12232,9.98666,5.90154,10.17143,6.1555L31,23.5l-.22363.29883c-.18743.252-4.57121,6.08408-10.2346,6.1468l-.01107,0ZM29.42871,7H17V8H29v7H22v.17194A12.259,12.259,0,0,1,24.89868,16h4.53A.57148.57148,0,0,0,30,15.42871V7.57129A.57144.57144,0,0,0,29.42871,7ZM19,15H3V8H9.87891l-1-1H2.57129A.57144.57144,0,0,0,2,7.57129v7.85742A.57148.57148,0,0,0,2.57129,16H16.12836A12.41679,12.41679,0,0,1,19,15.18042Z"/><rect class="cls-1" width="32" height="32"/></svg>

<svg xmlns="http://www.w3.org/2000/svg" viewBox="0 0 32 32"><path d="M4.6 4H0V3h4.6a7.45 7.45 0 0 1 5.304 2.197L15 10.293V5h1v7H9v-1h5.293L9.197 5.904A6.458 6.458 0 0 0 4.6 4zm6.885 24H3v-7h6.438c.258-.294.572-.631.938-1H2.571a.571.571 0 0 0-.571.571v7.858a.571.571 0 0 0 .571.571h10.16a20.967 20.967 0 0 1-1.246-1zm9.014-1.05a3.441 3.441 0 0 0 3.45-3.394v-.076a3.44 3.44 0 0 0-3.413-3.43h-.072a3.44 3.44 0 0 0-3.414 3.43v.076a3.44 3.44 0 0 0 3.45 3.394zm-.032-9.006c-4.552.102-8.395 4.333-9.374 5.544l.005.006-.004.006c.991 1.202 4.877 5.49 9.43 5.545h.014c4.552-.054 8.377-4.343 9.368-5.545l-.004-.006.005-.006c-.98-1.211-4.76-5.442-9.312-5.544h-.128zm.053 12.002c-5.664-.063-10.109-5.895-10.296-6.147L10 23.5l.22-.301c.185-.254 4.57-6.033 10.233-6.156h.155c5.663.123 9.987 5.902 10.172 6.156l.22.301-.224.299c-.187.252-4.57 6.084-10.234 6.147h-.011zM29.429 7H17v1h12v7h-7v.172a12.259 12.259 0 0 1 2.899.828h4.53a.571.571 0 0 0 .571-.571V7.57a.571.571 0 0 0-.571-.57zM19 15H3V8h6.879l-1-1H2.57a.571.571 0 0 0-.57.571v7.858a.571.571 0 0 0 .571.571h13.557A12.417 12.417 0 0 1 19 15.18z"/><path fill="none" d="M0 0h32v32H0z"/></svg>
